src/levels.svg

<?xml version="1.0" encoding="utf-8"?>
<!-- Generated by IcoMoon.io -->
<!DOCTYPE svg PUBLIC "-//W3C//DTD SVG 1.1//EN" "http://www.w3.org/Graphics/SVG/1.1/DTD/svg11.dtd">
<svg version="1.1" xmlns="http://www.w3.org/2000/svg" xmlns:xlink="http://www.w3.org/1999/xlink" width="512" height="512" viewBox="0 0 512 512">
<path fill="#000000" d="M127 99.2v-19.2c0-8.8-7.2-16-16-16s-16 7.2-16 16v21.5c-8.5 5.8-14 15.5-14 26.5s5.5 20.7 14 26.5v277.5c0 8.8 7.2 16 16 16s16-7.2 16-16v-275.2c10.7-5.2 18-16.1 18-28.8s-7.3-23.6-18-28.8z"></path>
<path fill="#000000" d="M223 292.9v-212.9c0-8.8-7.2-16-16-16s-16 7.2-16 16v211.7c-10.1 5.4-17 16-17 28.3s6.9 22.9 17 28.3v83.7c0 8.8 7.2 16 16 16s16-7.2 16-16v-84.9c9-5.7 15-15.7 15-27.1s-6-21.4-15-27.1z"></path>
<path fill="#000000" d="M319 163.3v-83.3c0-8.8-7.2-16-16-16s-16 7.2-16 16v83.3c-9.6 5.5-16 15.9-16 27.7s6.4 22.2 16 27.7v213.3c0 8.8 7.2 16 16 16s16-7.2 16-16v-213.3c9.6-5.5 16-15.9 16-27.7s-6.4-22.2-16-27.7z"></path>
<path fill="#000000" d="M431 383c0-11.8-6.4-22.2-16-27.7v-275.3c0-8.8-7.2-16-16-16s-16 7.2-16 16v275.3c-9.6 5.5-16 15.9-16 27.7s6.4 22.2 16 27.7v21.3c0 8.8 7.2 16 16 16s16-7.2 16-16v-21.3c9.6-5.5 16-15.9 16-27.7z"></path>
</svg>

<?xml version="1.0" encoding="utf-8"?>
<!-- Generator: Adobe Illustrator 16.2.1, SVG Export Plug-In . SVG Version: 6.00 Build 0)  -->
<!DOCTYPE svg PUBLIC "-//W3C//DTD SVG 1.1//EN" "http://www.w3.org/Graphics/SVG/1.1/DTD/svg11.dtd">
<svg version="1.1" id="Layer_1" xmlns="http://www.w3.org/2000/svg" xmlns:xlink="http://www.w3.org/1999/xlink" x="0px" y="0px"
	 width="512px" height="512px" viewBox="0 0 512 512" style="enable-background:new 0 0 512 512;" xml:space="preserve">
<g>
	<path d="M127,99.2V80c0-8.8-7.2-16-16-16s-16,7.2-16,16v21.5c-8.5,5.8-14,15.5-14,26.5s5.5,20.7,14,26.5V432c0,8.8,7.2,16,16,16
		s16-7.2,16-16V156.8c10.7-5.2,18-16.1,18-28.8S137.7,104.4,127,99.2z"/>
	<path d="M223,292.9V80c0-8.8-7.2-16-16-16s-16,7.2-16,16v211.7c-10.1,5.4-17,16-17,28.3s6.9,22.9,17,28.3V432c0,8.8,7.2,16,16,16
		s16-7.2,16-16v-84.9c9-5.7,15-15.7,15-27.1S232,298.6,223,292.9z"/>
	<path d="M319,163.3V80c0-8.8-7.2-16-16-16s-16,7.2-16,16v83.3c-9.6,5.5-16,15.9-16,27.7s6.4,22.2,16,27.7V432c0,8.8,7.2,16,16,16
		s16-7.2,16-16V218.7c9.6-5.5,16-15.9,16-27.7S328.6,168.8,319,163.3z"/>
	<path d="M431,383c0-11.8-6.4-22.2-16-27.7V80c0-8.8-7.2-16-16-16s-16,7.2-16,16v275.3c-9.6,5.5-16,15.9-16,27.7s6.4,22.2,16,27.7
		V432c0,8.8,7.2,16,16,16s16-7.2,16-16v-21.3C424.6,405.2,431,394.8,431,383z"/>
</g>
</svg>
